X: 14001
T: AESOP'S LASSIES
C: Bob McQuillen April'08
B: Bob's Note Book 14 #1
%R: jig
%D:2008
Z: 2020 John Chambers <jc:trillian.mit.edu>
M: 6/8
L: 1/8
K: G
D \
| GBA GBd | ece d2e | dBG GBG | EAG FED |\
| GBA GBd | geg d2B | cec BdB | AGF G2 :|
|: B \
| dBd gdB | cde d2B | GBd gde | dBG A2B |\
| GED GBd | ece def | gag edB | AGF G2 :|
%%begintext align
%% "Aesop's Tables" is a
%% wonderful coffee shop here in Peterborough. The
%% owners are Tiffany Quilty and Natasha Meehan,
%% and I come in every morning to jump-start my
%% day. It's yummy!  With love to Tiff & Tashy from Mac.
%%endtext
%%text With much love to Tiff and Tash, from MAC

%%sep 1 1 500

%%sep 1 1 500

